X:227
T:Fishers Hornpipe. VWMLa.227
%%VWML:Anon2-3049-p146-0
F:http://www.vwml.org/record/Anon2/3049/p146
S:Anon. MS, late 18thC, Vaughan Williams Mem. Library
O:England;Yorkshire
Z:vmp/efdss.Simon Wilson. Reviewed PJH 2008.
M:C|
L:1/8
Q:1/2=80
K:F
fe|fcAc BdcB|AcAc BdcB|AFAF BGBG|AFAF GEDC|\
fcAc BdcB|AcAc BdcB|cegb agfe|f2f2 f4:|
|:gece gebg|afcf afc'a|gece geba|gfed c4|\
dBFB dBfd|cAFA cAfc|dfed cBAG|[A,2F2][A,2F2] [A,4F4]:|
